X:964
T:Southwind
C:Traditional Irish
N:For the dance "The Fourth of October" by Judith Hanson
%%MIDI beat 100 95 80
S:Colin Hume's website,  colinhume.com  - chords can also be printed below the stave.
Q:1/4=130
R:Waltz
L:1/4
M:3/4
K:G
P:A
|: c | "G"B3/A/ G | "G"B3/c/ d | "D7"A2 A | "D7"A2 c | "G"B3/A/ G | "C"E3/D/ E | "G"G3- | "G"G2 :|
P:B
d | "G"g2 g | "C"g3/f/ e | "G"d2 d | "D"d2 c | "Em"B3/A/ G | "G"B3/c/ d | "D"A3- | "D7"A2 d |
P:C
"Em"g2 g | "C"g3/f/ e | "G"d2 d | "D"d2 c | "Em"B3/A/ G | "D7"A/c3/ F | "G"G3- | G2 |]

